X:1
T:O Tell Me
T:O Tell Me
T:A. C. Woodruff
T:A. C. Woodruff, 1893
T:Public Domain Courtesy of the Cyber Hymnal™
T:Public Domain Courtesy of the Cyber Hymnal™
C:A. C. Woodruff
Z:Public Domain
Z:Courtesy of the Cyber Hymnal™
%%score ( 1 2 ) ( 3 4 )
L:1/8
Q:1/4=90
M:3/4
K:G
V:1 treble 
V:2 treble 
V:3 bass 
V:4 bass 
V:1
 [B,D] | [DB]>[CA] [B,G][B,D] [^A,^C][B,D] | [CE]3 [B,D]2 [B,D] | [CE]>[CE] [DF][DG] [DA][GB] | %4
w: 1.~O|tell me that beau- ti- ful|sto- ry, Of|Je- sus, His work and His|
w: 2.~O|teach me the way of the|Mas- ter, O|show me the path- way to|
 [DA]3- [DA]2 [DA] | [DB]>[DA] [DG][DG] [DA][GB] | (c2 d) [Ge]2 [Ge] | [Gd][GB] G[Fc] [GB][FA] | %8
w: word; * O|tell me that beau- ti- ful|sto- * ry, Much|sweet- er than mor- tal e’er|
w: trace; * My|feet in the vale have grown|wea- * ry, So|far from the beau- ti- ful|
 G6 | [FA][FA] [FA][E^c] [EB][EA] | [Ad]3 [FA]3 | [GB][GB] [A^c][Ad] [Ae][Af] | [Ae]3- [Ae]2 [Ae] | %13
w: heard;|Sing me the song of re-|demp- tion,|Sing of that ci- ty of|gold; * O|
w: place;|Sing of the way that He|walked in,|As an ex- am- ple for|me; * The|
 [Af]>[Ge] [Fd][Fd] [Fe][Fd] | [DB]3 [Ge]2 [Ee] | [Ad][Dd] [FA][GB] [GB][G^c] | [Fd]3- [Fd]2 || %17
w: sing till my soul to the|mu- sic Of|sweet love’s re- deem- ing un-|fold. *|
w: les- sons He taught in Ju-|de- a, In|Ca- na and sweet Gal- i-|lee. *|
"^Refrain" [Fc] | [GB]>[Gc] [Gd][DG]>[DA][DB] | (E2 G) [B,D]2 [DB]/[DB]/ x | %20
w: |||
w: |||
 [Dc][DB] [FA][Fe] [Fd][Fc] | [GB]3- [GB]2 [GB]/[Gc]/ | [Gd]2 [Dc][DB] [DA][DG] | %23
w: |||
w: |||
 A2 B [Ec]2 [Ec]/[Ec]/ | [DB]>[DA] [DG]"^riten."[DA]>[DG]!fermata![DF] | [DG]3- [DG]2 |] %26
w: |||
w: |||
V:2
 x | x6 | x6 | x6 | x6 | x6 | G3 x3 | x2 G x3 | G6 | x6 | x6 | x6 | x6 | x6 | x6 | x6 | x5 || x | %18
 x6 | C3 x4 | x6 | x6 | x6 | E3 x3 | x6 | x5 |] %26
V:3
 G, | G,>G, G,G, G,G, | [C,G,]3 [G,,G,]2 [G,,G,] | [C,G,]>[B,,G,] [C,A,][B,,G,] [A,,F,][G,,G,] | %4
w: ~|~ ~ ~ ~ ~ ~|~ ~ ~|~ ~ ~ ~ ~ ~|
 [D,F,]3- [D,F,]2 [D,F,] | G,>[G,A,] [G,B,][G,B,] [G,A,]G, | ([E,G,]2 [D,B,]) [C,C]2 [C,C] | %7
w: ~ * ~|~ ~ ~ ~ ~ ~|~ * ~ ~|
 [D,B,][D,D] [D,B,][D,A,] [D,D][D,C] | [G,,B,]6 | [D,D][D,D] [D,D]A, [G,A,][G,^C] | [F,D]3 [D,D]3 | %11
w: ~ ~ ~ ~ ~ ~|~|~ ~ ~ ~ ~ ~|~ ~|
 [G,D][G,D] [G,E][F,D] [E,^C][D,D] | [A,^C]3- [A,C]2 [A,C] | %13
w: ~ ~ ~ ~ ~ ~|~ * ~|
 [D,D]>[D,D] [D,A,][D,A,] [D,A,][D,A,] | G,3 [E,B,]2 [A,^C] | [F,D][F,D] [D,D][G,D] [G,D]A, | %16
w: ~ ~ ~ ~ ~ ~|~ ~ ~|~ ~ ~ ~ ~ ~|
 [D,A,]3- [D,A,]2 || [D,D] | [G,D]>[G,C] [G,B,][G,B,]>[G,A,]G, | G,3 E, G,2 G,/G,/ | %20
w: ~ *|O|talk to me, sing to me,|teach me, I must hear|
 [F,A,][G,B,] [A,C][D,C] [D,D][D,C] | [G,D]3- [G,D]2 [G,D]/[G,C]/ | [G,B,]2 [G,A,]G, [G,A,][G,B,] | %23
w: it a- gain and a- gain;|Till * my life|is hid with the bless-|
 [C,C]3 [C,G,]2 [C,G,]/[C,G,]/ | [D,G,]>[D,A,] [D,B,][D,C]>[D,B,]!fermata![D,A,] | %25
w: èd, Till for me|it is “Yea and A- men.”|
 [G,,B,]3- [G,,B,]2 |] %26
w: |
V:4
 G, | G,>G, G,G, G,G, | x6 | x6 | x6 | G,3/2 x2 G, x3/2 | x6 | x6 | x6 | x3 A, x2 | x6 | x6 | x6 | %13
 x6 | G,3 x3 | x5 A, | x5 || x | x5 G, | (C,2 G,2) G,/G,/ x2 | x6 | x6 | x3 G, x2 | x6 | x6 | x5 |] %26

